X: 6
T: Crowley's
R: reel
M: 4/4
L: 1/8
K: Dmaj
f2ed edBe | dBBA BAFA | BGdB AFDF | GEFD ED (3Bcd |
fAdf edBe | dBBA BAFA | B2dB AFDF | EFGE FDFA ||
d3A dAFA |  BGBd cA3 | B2AB GAFG | EFGE FDFA :|


Tune 1180	Setting 14451

